X: 4
T: Elizabeth Kelly's Delight
R: slip jig
M: 9/8
L: 1/8
K: Ador
|: A3 ABG AGE | A2 F G2 E DEG | A2 A ABG AGE | G2 G GED DEG :||: c3 BAG AGE | c2 c BAG A3 | c3 BAG AGE | G2 G GED DEG :|


Tune 953	Setting 953

